X:1
T:Marche
T:Marche in G Major
T:Carl Philipp Emanuel Bach Helm 1/3 (BWV Anh. 124) 
T:from Notebook for Anna Magdalena Bach (1725)
T:Public Domain (PianoXML typeset)
C:Carl Philipp Emanuel Bach
Z:Public Domain (PianoXML typeset)
%%score { 1 | ( 2 3 4 ) }
L:1/8
Q:1/4=144
M:2/2
K:G
V:1 treble nm="Piano"
V:2 bass 
V:3 bass 
V:4 bass 
V:1
"^Allegro"!mf! dGGG z fge | d x x2 z dec | B x7 | agfe d2 c2 | BGGg gGGg | g^ccg gAAg | %6
 f2 ed T^c3 d | dAAF FAAF | D8 :: dAAA dFFF | dDDD DEFG | AGAB =cBcd |{/c} B2 AB Gdef | gddd gBBB | %14
 gGGG GABc | dcde =fefg |{/=f} e2 ce cBcd | eccA Affg | dBBG Gffg | c2 BA TA3 G | GDDB, B,DDB, | %21
 G,8 :| %22
V:2
 x4[I:staff -1] GABc | BGGG GBcA | GGBd gd (ga/b/) |[I:staff +1] C,2 E,2 F,2 D,2 | G,2 G,,4 F,2 | %5
 E,2 A,,4 ^C,2 | D,2 F,2 A,2 A,,2 | D,A,A,F, F,A,A,F, | D,8 :: D,,2 D,,2 D,,2 D,,2 | %10
 D,,D,,D,,D,, D,,2 E,,2 | F,,2 D,,4 E,,F,, | G,,2 D,2 G,2 D,2 | G,,2 G,,2 G,,2 G,,2 | %14
 G,,G,,G,,G,, G,,2 A,,2 | B,,2 G,,4 A,,B,, | C,2 G,2 C2 G,2 | C,4 z2 C,2 | B,,4 z2 B,,2 | %19
 A,,2 G,,2 D,2 D,,2 | G,,D,D,B,, B,,D,D,B,, | G,,8 :| %22
V:3
 z G,,G,,G,, G,, z z2 | x8 | z2 G,,2 B,,2 F,,2 | x8 | x8 | x8 | x8 | x8 | x8 :: x8 | x8 | x8 | x8 | %13
 x8 | x8 | x8 | x8 | x8 | x8 | x8 | x8 | x8 :| %22
V:4
 x8 | z G,,G,,G,, G,, z z2 | x8 | x8 | x8 | x8 | x8 | x8 | x8 :: x8 | x8 | x8 | x8 | x8 | x8 | x8 | %16
 x8 | x8 | x8 | x8 | x8 | x8 :| %22

